assets/icons/empty-list.svg

<svg width="120" height="120" viewBox="0 0 120 120" fill="none" xmlns="http://www.w3.org/2000/svg">
<circle cx="57.1737" cy="62.6737" r="49.5096" fill="#C1CBFF"/>
<circle cx="57.1738" cy="62.6738" r="54.6738" fill="#EFF2FF" stroke="white" stroke-width="4"/>
<mask id="mask0_7223_3600" style="mask-type:luminance" maskUnits="userSpaceOnUse" x="5" y="13" width="104" height="104">
<circle cx="56.5869" cy="64.5869" r="51.5869" fill="white"/>
</mask>
<g mask="url(#mask0_7223_3600)">
<path d="M56.3398 36.752C59.6038 36.752 62.2498 39.3982 62.25 42.6621V45.3486H65.1514C68.4153 45.3487 71.0615 47.9949 71.0615 51.2588C71.0615 54.5228 68.4153 57.1689 65.1514 57.1689H47.5283C44.2643 57.1689 41.6182 54.5228 41.6182 51.2588C41.6182 47.9949 44.2644 45.3487 47.5283 45.3486H50.4297V42.6621C50.4299 39.3982 53.0759 36.752 56.3398 36.752Z" fill="url(#paint0_linear_7223_3600)"/>
<path d="M75.3076 51.1035C86.3533 51.1035 95.3076 60.0579 95.3076 71.1035V107.309C95.3076 118.354 86.3533 127.309 75.3076 127.309H38.1133C27.0676 127.309 18.1133 118.354 18.1133 107.309V71.1035C18.1133 60.0579 27.0676 51.1035 38.1133 51.1035H39.584C39.459 51.6192 39.3916 52.1578 39.3916 52.7119C39.3918 56.4695 42.4387 59.5156 46.1963 59.5156H66.4844C70.2418 59.5154 73.2879 56.4693 73.2881 52.7119C73.2881 52.1578 73.2197 51.6192 73.0947 51.1035H75.3076Z" fill="url(#paint1_linear_7223_3600)"/>
<rect x="32.2158" y="66.9375" width="48.4942" height="10.639" rx="5.31951" fill="white"/>
<rect x="36.6689" y="86.9766" width="36.618" height="2.96903" rx="1.48452" fill="white"/>
<circle cx="33.7003" cy="88.4611" r="1.48452" fill="white"/>
<rect x="36.6689" y="99.3496" width="25.2368" height="2.96903" rx="1.48452" fill="white"/>
<circle cx="33.7003" cy="100.834" r="1.48452" fill="white"/>
<circle cx="75.0196" cy="29.0811" r="4.20613" fill="url(#paint2_linear_7223_3600)"/>
<circle cx="30.6077" cy="38.113" r="2.5979" transform="rotate(-90 30.6077 38.113)" fill="url(#paint3_linear_7223_3600)"/>
<circle cx="90.2356" cy="45.2888" r="2.5979" transform="rotate(-90 90.2356 45.2888)" fill="url(#paint4_linear_7223_3600)"/>
</g>
<defs>
<linearGradient id="paint0_linear_7223_3600" x1="56.3398" y1="36.752" x2="56.3398" y2="57.1689" gradientUnits="userSpaceOnUse">
<stop stop-color="#4D64DE"/>
<stop offset="1" stop-color="#B5C0FF"/>
</linearGradient>
<linearGradient id="paint1_linear_7223_3600" x1="24.0513" y1="56.7942" x2="71.927" y2="138.69" gradientUnits="userSpaceOnUse">
<stop stop-color="#B5C0FF"/>
<stop offset="1" stop-color="#5464DA"/>
</linearGradient>
<linearGradient id="paint2_linear_7223_3600" x1="75.0196" y1="24.875" x2="75.0196" y2="33.2873" gradientUnits="userSpaceOnUse">
<stop stop-color="#B0BCFF"/>
<stop offset="1" stop-color="#B0BCFF" stop-opacity="0"/>
</linearGradient>
<linearGradient id="paint3_linear_7223_3600" x1="30.6077" y1="35.5151" x2="30.6077" y2="40.7109" gradientUnits="userSpaceOnUse">
<stop stop-color="#B0BCFF"/>
<stop offset="1" stop-color="#B0BCFF" stop-opacity="0"/>
</linearGradient>
<linearGradient id="paint4_linear_7223_3600" x1="90.2356" y1="42.6909" x2="90.2356" y2="47.8867" gradientUnits="userSpaceOnUse">
<stop stop-color="#B0BCFF" stop-opacity="0.53"/>
<stop offset="1" stop-color="#B0BCFF" stop-opacity="0"/>
</linearGradient>
</defs>
</svg>

<svg xmlns="http://www.w3.org/2000/svg" width="120" height="120" fill="none" viewBox="0 0 120 120" data-c="1"><circle cx="57.174" cy="62.674" r="49.51" fill="#C1CBFF"/><circle cx="57.174" cy="62.674" r="54.674" fill="#EFF2FF" stroke="#fff" stroke-width="4"/><mask id="a" width="104" height="104" x="5" y="13" maskUnits="userSpaceOnUse" style="mask-type:luminance"><circle cx="56.587" cy="64.587" r="51.587" fill="#fff"/></mask><g mask="url(#a)"><path fill="url(#b)" d="M56.34 36.752a5.91 5.91 0 0 1 5.91 5.91v2.687h2.901a5.91 5.91 0 0 1 0 11.82H47.528a5.91 5.91 0 0 1 0-11.82h2.902v-2.687a5.91 5.91 0 0 1 5.91-5.91"/><path fill="url(#c)" d="M75.308 51.104c11.045 0 20 8.954 20 20v36.205c0 11.045-8.955 20-20 20H38.113c-11.045 0-20-8.955-20-20V71.104c0-11.046 8.955-20 20-20h1.471a6.805 6.805 0 0 0 6.612 8.412h20.288a6.804 6.804 0 0 0 6.61-8.413z"/><rect width="48.494" height="10.639" x="32.216" y="66.938" fill="#fff" rx="5.32"/><rect width="36.618" height="2.969" x="36.669" y="86.977" fill="#fff" rx="1.485"/><circle cx="33.7" cy="88.461" r="1.485" fill="#fff"/><rect width="25.237" height="2.969" x="36.669" y="99.35" fill="#fff" rx="1.485"/><circle cx="33.7" cy="100.834" r="1.485" fill="#fff"/><circle cx="75.02" cy="29.081" r="4.206" fill="url(#d)"/><circle cx="30.608" cy="38.113" r="2.598" fill="url(#e)" transform="rotate(-90 30.608 38.113)"/><circle cx="90.236" cy="45.289" r="2.598" fill="url(#f)" transform="rotate(-90 90.236 45.289)"/></g><defs><linearGradient id="b" x1="56.34" x2="56.34" y1="36.752" y2="57.169" gradientUnits="userSpaceOnUse"><stop stop-color="#4D64DE"/><stop offset="1" stop-color="#B5C0FF"/></linearGradient><linearGradient id="c" x1="24.051" x2="71.927" y1="56.794" y2="138.69" gradientUnits="userSpaceOnUse"><stop stop-color="#B5C0FF"/><stop offset="1" stop-color="#5464DA"/></linearGradient><linearGradient id="d" x1="75.02" x2="75.02" y1="24.875" y2="33.287" gradientUnits="userSpaceOnUse"><stop stop-color="#B0BCFF"/><stop offset="1" stop-color="#B0BCFF" stop-opacity="0"/></linearGradient><linearGradient id="e" x1="30.608" x2="30.608" y1="35.515" y2="40.711" gradientUnits="userSpaceOnUse"><stop stop-color="#B0BCFF"/><stop offset="1" stop-color="#B0BCFF" stop-opacity="0"/></linearGradient><linearGradient id="f" x1="90.236" x2="90.236" y1="42.691" y2="47.887" gradientUnits="userSpaceOnUse"><stop stop-color="#B0BCFF" stop-opacity=".53"/><stop offset="1" stop-color="#B0BCFF" stop-opacity="0"/></linearGradient></defs></svg>
